X:21
T:Faut Marit
R:polska K1
A:\"Alvdalen, Dalarna
Z:id:hn-k1-21
M:3/4
L:1/8
K:Amix
A2 cd e>c|d2 BG B2-|B2 fg/f/ ef/e/|1 S d2 B4:|2 S d2 B4-||
|:B2 GF/G/ A>F|F2 EG B2-|B2 GF/G/ A>F|F2 EG B2-|B2 GF/G/ A>F|S F2 E4:|
<end>
<start>
